flaticon/interaction/smartphone-18.svg

<svg xmlns="http://www.w3.org/2000/svg" width="32" height="32" viewBox="0 0 24 24">
    <path d="M21.195312 21.71875L18.476562 19 21.066406 17.703125 14.011719 15.101562 16.613281 22.15625 17.910156 19.5625 20.628906 22.28125C20.707031 22.359375 20.808594 22.398438 20.910156 22.398438 21.011719 22.398438 21.117188 22.359375 21.195312 22.28125 21.351562 22.125 21.351562 21.875 21.195312 21.71875zM15.363281 16.453125L19.054688 17.8125 17.5 18.589844 16.722656 20.144531zM7.890625 21.199219C7.890625 22.082031 8.605469 22.800781 9.488281 22.800781 10.371094 22.800781 11.089844 22.082031 11.089844 21.199219 11.089844 20.316406 10.371094 19.601562 9.488281 19.601562 8.605469 19.601562 7.890625 20.316406 7.890625 21.199219zM10.289062 21.199219C10.289062 21.640625 9.929688 22 9.488281 22 9.046875 22 8.6875 21.640625 8.6875 21.199219 8.6875 20.757812 9.046875 20.398438 9.488281 20.398438 9.929688 20.398438 10.289062 20.757812 10.289062 21.199219zM10.289062 21.199219"/>
    <path d="M 14.527344 23.199219 L 4.449219 23.199219 C 3.921875 23.199219 3.488281 22.769531 3.488281 22.238281 L 3.488281 19.199219 L 11.890625 19.199219 C 12.109375 19.199219 12.289062 19.019531 12.289062 18.800781 C 12.289062 18.578125 12.109375 18.398438 11.890625 18.398438 L 3.488281 18.398438 L 3.488281 3.199219 L 15.488281 3.199219 L 15.488281 12 C 15.488281 12.222656 15.667969 12.398438 15.890625 12.398438 C 16.109375 12.398438 16.289062 12.222656 16.289062 12 L 16.289062 1.761719 C 16.289062 0.789062 15.496094 0 14.527344 0 L 4.449219 0 C 3.480469 0 2.6875 0.789062 2.6875 1.761719 L 2.6875 22.238281 C 2.6875 23.210938 3.480469 24 4.449219 24 L 14.527344 24 C 14.746094 24 14.925781 23.820312 14.925781 23.597656 C 14.925781 23.378906 14.746094 23.199219 14.527344 23.199219 Z M 4.449219 0.800781 L 14.527344 0.800781 C 15.058594 0.800781 15.488281 1.230469 15.488281 1.761719 L 15.488281 2.398438 L 3.488281 2.398438 L 3.488281 1.761719 C 3.488281 1.230469 3.921875 0.800781 4.449219 0.800781 Z M 4.449219 0.800781"/>
    <path d="M7.890625 2L9.488281 2C9.710938 2 9.890625 1.820312 9.890625 1.601562 9.890625 1.378906 9.710938 1.199219 9.488281 1.199219L7.890625 1.199219C7.667969 1.199219 7.488281 1.378906 7.488281 1.601562 7.488281 1.820312 7.667969 2 7.890625 2zM10.6875 2L11.089844 2C11.308594 2 11.488281 1.820312 11.488281 1.601562 11.488281 1.378906 11.308594 1.199219 11.089844 1.199219L10.6875 1.199219C10.46875 1.199219 10.289062 1.378906 10.289062 1.601562 10.289062 1.820312 10.46875 2 10.6875 2zM10.6875 2"/>
</svg>

<svg xmlns="http://www.w3.org/2000/svg" width="32" height="32" viewBox="0 0 24 24">
    <path d="M21.195 21.719L18.477 19l2.59-1.297-7.055-2.601 2.601 7.054 1.297-2.593 2.719 2.718c.078.078.18.117.281.117.102 0 .207-.039.285-.117a.396.396 0 0 0 0-.562zm-5.832-5.266l3.692 1.36-1.555.777-.777 1.555zm0 0M7.89 21.2a1.6 1.6 0 0 0 1.598 1.6c.883 0 1.602-.718 1.602-1.6a1.6 1.6 0 0 0-3.2 0zm2.4 0a.802.802 0 0 1-1.602 0 .802.802 0 0 1 1.601 0zm0 0"/>
    <path d="M14.527 23.2H4.45a.963.963 0 0 1-.96-.962V19.2h8.402a.4.4 0 0 0 0-.8H3.488v-15.2h12V12c0 .223.18.398.403.398a.398.398 0 0 0 .398-.398V1.762C16.29.789 15.496 0 14.527 0H4.45C3.48 0 2.688.79 2.688 1.762v20.476c0 .973.792 1.762 1.761 1.762h10.078a.401.401 0 0 0 0-.8zM4.45.8h10.078c.532 0 .961.43.961.962v.636h-12v-.636c0-.532.434-.961.961-.961zm0 0"/>
    <path d="M7.89 2h1.598a.401.401 0 1 0 0-.8H7.891a.401.401 0 0 0 0 .8zm0 0M10.688 2h.402a.4.4 0 0 0 0-.8h-.402a.401.401 0 0 0 0 .8zm0 0"/>
</svg>
